!!!CDT:
!!!PTL: Arie musicali da cantarsi nel clavecembalo chitarone o altro simile istromento a una e doi voci 
!!!PPP: Venice
!!!PPR: Alessandro Vincenzi
!!!PDT: 1635
!!!RISM: N 360
!!!rime:
!!!AGN: Madrigal
!!!SCT: Tsg19107e
!!!SCA: Tsg19107e
!!!voices:
!!!COM: Negri, Francesco
!!!OTL: Ma che? squallido e scuro anco mi piaci
**kern	**fb	**kern	**text
*part2	*part2	*part1	*part1
*staff2	*staff2	*staff1	*staff1
*I"[Basso continuo]	*	*I"[Tenore]	*
*I'Bc	*	*I'T	*
*oclefF4	*	*oclefC4	*
*clefF4	*	*clefGv2	*
*k[b-]	*	*k[b-]	*
*F:	*	*F:	*
*omet(C)	*	*omet(C)	*
*M4/4	*	*M4/4	*
=1	=1	=1	=1
!!LO:TX:a:t=Terza Parte.
1G	.	4r	.
.	.	4d	Ma
.	.	2B-y	che?
=2	=2	=2	=2
2G	6	2e-X	squal-
2F	5	[2c#X	.
=3	=3	=3	=3
1E-X	6	4c#]	.
.	.	8cnX	-li-
.	.	8c	-do e
.	.	8CnX	scu-
.	.	16C	-ro
.	.	16c	an-
.	.	8.G	-cor
.	.	16A	mi
=4	=4	=4	=4
2D	6	2B-y	pia-
4D	.	2A	-ci;
4C	.	.	.
=5	=5	=5	=5
2BB-y	.	4r	.
.	.	8B-y	A-
.	.	16B-y	-ni-
.	.	16c	-ma
4BB-y	.	8d	bel-
.	.	8d	-la,
4C	-	8e-X	se
.	.	8d	quin-
=6	=6	=6	=6
2D	.	16fL	-ci en-
.	.	16g	.
.	.	16e-X	.
.	.	16fJ	.
.	.	16dL	.
.	.	16d	.
.	.	16d	.
.	.	16dJ	.
2E-X	.	16GL	.
.	.	16G	.
.	.	16G	.
.	.	16GJ	.
.	.	16GL	.
.	.	16G	.
.	.	16.G	.
.	.	(32AJ	.
=7	=7	=7	=7
2G	6	2B-y)	.
2F	.	(16AL	.
.	.	16B-y)	.
.	.	(16cJ	-tro
.	.	16B-y)	.
.	.	32cL	gi-
.	.	32B-y	.
.	.	32A	.
.	.	32B-y	.
.	.	32c	.
.	.	32d	.
.	.	16AJ	.
=8	=8	=8	=8
(4F	5:6	32dL	.
.	.	32c	.
.	.	32d	.
.	.	32B-y	.
.	.	32e-X	.
.	.	32d	.
.	.	32e-X	.
.	.	32cJ	.
[4F)	.	32fL	.
.	.	32e-X	.
.	.	32d	.
.	.	32e-X	.
.	.	32f	.
.	.	32g	.
.	.	32d	.
.	.	32fJ	.
2F]	6:4:3	32e-XL	.
.	.	32f	.
.	.	32c	.
.	.	32e-X	.
.	.	32c	.
.	.	32d	.
.	.	8B-yJ	.
.	.	32cL	.
.	.	32d	.
.	.	32e-i	.
.	.	32d	.
.	.	32c	.
.	.	32dJ	.
=9	=9	=9	=9
1BB-y	.	2B-y	-ri,
.	.	8r	.
.	.	8d	S'o-
.	.	8.f	-di il
.	.	16d	mio
=10	=10	=10	=10
2F	.	8cL	pian-
.	.	16d	.
.	.	16eJ	.
.	.	2f	.
2C	43	.	.
.	.	[4e-X	-t'e
=11	=11	=11	=11
(2G	6	4e-]	.
.	.	8e-X	le
.	.	8e-i	mie
2G)	6:5	8e-i	vo-
.	.	8e-i	-glie
.	.	8r	.
.	.	16e-XL	au-
.	.	16dJ	.
=12	=12	=12	=12
(2A-X	4:3	8.dL	-da-
.	.	16e-XJ	.
.	.	8.dL	.
.	.	16e-XJ	.
2A-i)	6	2f	.
=13	=13	=13	=13
4G	.	2d	-ci
4F	.	.	.
2E	5:6	8r	.
.	.	8enXi	Per-
.	.	8.c	-do-
.	.	16B-y	-n'il
=14	=14	=14	=14
2F	.	8A	fur-
.	.	8A	-to,
.	.	4r	.
2C#X	6	8r	.
.	.	8e	e'l
.	.	8e	te-
.	.	8e	-me-
=15	=15	=15	=15
4D	n	4e	-ra-
4GG	.	4f	-rio ar-
2AA	4:#3	(4f	-di-
.	.	16e)L	.
.	.	16e	.
.	.	(16e	.
.	.	16d)J	.
=16	=16	=16	=16
4D	.	2d	-re,
4C	.	.	.
2BBnX	.	8r	.
.	.	8d	Per-
.	.	8.BnX	-do-
.	.	16A	-n'il
=17	=17	=17	=17
(2BBnXi	.	8G	fur-
.	.	8G	-to,
.	.	4r	.
2C)	6	8r	.
.	.	8A	e'l
.	.	8A	te-
.	.	8A	-me-
=18	=18	=18	=18
(2D	3:4:3	16A	-ra-
.	.	32B-yL	-rio ar-
.	.	32c	.
.	.	32d	.
.	.	32e-X	.
.	.	32f	.
.	.	32e-iJ	.
.	.	32dL	.
.	.	32e-i	.
.	.	32c	.
.	.	32d	.
.	.	32B-y	.
.	.	32c	.
.	.	32A	.
.	.	32B-yJ	.
2D)	.	32cL	.
.	.	32B-y	.
.	.	32A	.
.	.	32B-y	.
.	.	8.GJ	.
.	.	16A	.
.	.	8A	-di-
=19	=19	=19	=19
1GG	.	1G	-re.
=20||	=20||	=20||	=20||
!!LO:TX:a:t=Quarta Parte.
1G	.	4r	.
.	.	8B-y	Dal-
.	.	8B-y	-le
.	.	4.F#X	pal-
.	.	16E	-li-
.	.	16F#X	-de
=21	=21	=21	=21
2G	.	8G	la-
.	.	16G	-bra i
.	.	16B-y	fred-
.	.	16AL	.
.	.	16A	.
.	.	16A	.
.	.	16GJ	.
2F	6	16dL	.
.	.	16c	.
.	.	16c	.
.	.	16cJ	.
.	.	16cL	.
.	.	16fnXi	.
.	.	16e-X	.
.	.	(16e-iJ	.
=22	=22	=22	=22
1E-X	7:6	4e-X)	.
.	.	32dL	.
.	.	32d	.
.	.	32d	.
.	.	32c	.
.	.	32c	.
.	.	32c	.
.	.	32c	.
.	.	32AJ	.
.	.	4.G	.
.	.	8A	-di
=23	=23	=23	=23
2D	#	2A	ba-
4D	.	2A	-ci,
4C	6	.	.
=24	=24	=24	=24
2BB-y	.	8r	.
.	.	8d	Che
.	.	8d	più
.	.	4.e-X	cal-
4BB-y	4	.	.
4C	.	8.e-i	-di
.	.	16d	spe-
=25	=25	=25	=25
2D	.	8d	-rai,
.	.	8f	vuò
.	.	4B-y	pur
2E-X	.	16gL	ra-
.	.	16f	.
.	.	16e-X	.
.	.	16dJ	.
.	.	16e-XL	.
.	.	16d	.
.	.	16c	.
.	.	16B-yJ	.
=26	=26	=26	=26
2G	6	16e-XL	.
.	.	16d	.
.	.	16c	.
.	.	16B-yJ	.
.	.	16cL	.
.	.	16B-y	.
.	.	16A	.
.	.	16GJ	.
2F	.	16AL	.
.	.	16F	.
.	.	16G	.
.	.	16AJ	.
.	.	32B-yL	.
.	.	32c	.
.	.	32d	.
.	.	32enXi	.
.	.	32f	.
.	.	32g	.
.	.	32a	.
.	.	32b-yJ	.
=27	=27	=27	=27
1F	3:4:3	8.c	.
.	.	16d	-pi-
.	.	16e-XL	.
.	.	8.B-yJ	.
.	.	16cL	.
.	.	16c	.
.	.	16c	.
.	.	16cJ	.
.	.	16cL	.
.	.	16c	.
.	.	(16c	.
.	.	16B-y)J	.
=28	=28	=28	=28
1BB-y	.	2B-y	-re.
.	.	8r	.
.	.	8B-y	Par-
.	.	8c	-te
.	.	8d	tor-
=29	=29	=29	=29
2F	.	8A	-rò
.	.	8c	di
.	.	8e-X	sue
.	.	8f	rag-
2C	.	4.g	-gio-
.	.	8c	-n'a
=30	=30	=30	=30
1G	.	[1G	mor-
=31	=31	=31	=31
1A-X	.	2G]	.
.	.	16GL	.
.	.	16G	.
.	.	16G	.
.	.	16GJ	.
.	.	8.G	.
.	.	16F	-te,
=32	=32	=32	=32
4G	.	2G	.
4F	.	.	.
2E	6	8r	.
.	.	16eL	Bac-
.	.	16dJ	.
.	.	16cL	-cian-
.	.	16B-y	.
.	.	16AJ	.
.	.	16GJL	-do
=33	=33	=33	=33
2F	.	8.A	que-
.	.	16G	-ste
.	.	8F	la-
.	.	8F	-bra
2C#X	5:4	4r	.
.	.	(16gL	e-
.	.	8.f#X)J	.
=34	=34	=34	=34
4D	.	(16fnXiL	-san-
.	.	8.e)J	.
4GG	6	16e-X	-gue
.	.	8.d	e
2AA	4:3	4.d	smor-
.	.	(8c#X	-te,
=35	=35	=35	=35
4D	.	2d)	.
4C	.	.	.
2BBnX	.	8r	.
.	.	(16dL	Bac-
.	.	16cnXi)J	.
.	.	(16BnXL	-cian-
.	.	16A)	.
.	.	(16BnXJ	-do
.	.	16A)	.
=36	=36	=36	=36
(2C	.	8.G	que-
.	.	16F	-ste
.	.	8E	la-
.	.	8E	-bra
2C)	.	4r	.
.	.	(16eL	e-
.	.	8.e-X)J	.
=37	=37	=37	=37
(2D	.	(16dL	-san-
.	.	8.c#X)J	.
.	.	16cnXi	-gue
.	.	8.BnX	e
2D)	4:3	(8B-XL	smor-
.	.	16A)	.
.	.	16AJ	.
.	.	16AL	.
.	.	16A	.
.	.	16A	.
.	.	16AJ	.
=38	=38	=38	=38
1GGl	.	1Gl	-te.
==	==	==	==
*-	*-	*-	*-
!!!system-decoration: [*]
!!!RDF**kern: i = editorial accidental
!!!RDF**kern: l = terminal long
!!!ENC: Emiliano Ricciardi
!!!END:
!!!EED: Ricciardi, Emiliano
!!!EEV: 2020/02/23
!!!YEC: Copyright 2018 Emiliano Ricciardi, All Rights Reserved
!!!ONB: Translated from MusicXML on 2020/02/23
!!@@BEGIN:	VERSEDATA
!!@CATALOGNUM:	Tsg19107
!!@LAST_MODIFIED: 2020/07/12
!!@TITLE:		Ma che? squallido e scuro anco mi piaci
!!@CANTO:		XIX
!!@OTTAVA:	107
!!@MANUSRC:	G-Al, G-Au, G-Br<sub>2</sub>, G-Es<sub>1</sub>, G-Es<sub>2</sub>, G-Es<sub>3</sub>, G-F, G-Fr, G-Fr<sub>1</sub>, G-Fr<sub>2</sub>, G-Mc<sub>1</sub>, G-Mr, G-Mt, G-N
!!@PRINTSRC:	G-1580CM, G-1581B, G-1581CV, G-1581R, G-1581MR, G-1581P, G-1581V, G-1581V<sub>bis</sub>, G-1582C, G-1582M, G-1582MC, G-1582P, G-1582SC, G-1582SC<sub>bis</sub>, G-1583S, G-1584O, G-1584S, G-1585C, G-1585S, G-1588S, G-1589S, G-1590B, G-1590S, G-1592S, G-1593S, G-1594C, G-1595C, G-1597C, G-1598C, G-1599C, G-1600C, G-1600S, G-1601C, G-1601R, G-1602C, G-1604C, G-1604Cl, G-1604F, G-1604P, G-1606B, G-1606B<sub>bis</sub>, G-1606L, G-1607ZR, G-1608DP, G-1609GC, G-1610M, G-1611S, G-1611V, G-1612P, G-1613M, G-1613P, G-1613V, G-1615P, G-1616M, G-1617P, G-1619B, G-1619V, G-1620M, G-1620S, G-1621R, G-1624I, G-1624MT, G-1625C, G-1625S, G-1625SS, G-1626C, G-1626Co, G-1627M, G-1628T, G-1628Tu, G-1630L, G-1630T, G-1632FT, G-1639CF, G-1642M, G-1643I, G-1644P, G-1644S
!!@@BEGIN:	VERSES
!!@ABOUTIT:
!!@ABOUTEN:
!!@EDITOR:	Angelo Solerti
!!@EDITION_TITLE: Gerusalemme liberata. Poema eroico di Torquato Tasso. Edizione critica sui manoscritti e le prime stampe.
!!@EDITION_LOC:	Florence
!!@EDITION_PUB:	G. Barbera
!!@EDITION_DATE:  1895
!!@EDITION_VOL:
!!@EDITION_PAGE:
!!@TRANSLATOR:	Emiliano Ricciardi and Amyrose McCue Gill
!!@VERSE:
!!	Ma che? squallido e scuro anco mi piaci;
!!	Anima bella, se quinci entro gire,
!!	S’odi il mio pianto, alle mie voglie audaci
!!	Perdona il furto, e ’l temerario ardire.
!!	Dalle pallide labbra i freddi baci,
!!	Che più caldi sperai, vuò pur rapire.
!!	Parte torrò di sue ragioni a morte,
!!	Baciando queste labbra esangui e smorte.
!!@TVERSE:
!!	But what [am I saying]? Dismal and dark still you please me;
!!	Beautiful soul, if there within it turns,
!!	If you hear my lament, for my daring desires
!!	Pardon the theft, and the reckless courage.
!!	From pale lips even cold kisses,
!!	Which I hoped [were] warmer, I wish to steal.
!!	I will take some of what belongs to her from death,
!!	Kissing these lips, bloodless and lifeless.
!!@@END:		VERSES
!!@OTHER_CRIT_ED:  Torquato Tasso, <i>Gerusalemme liberata</i>, ed. Lanfranco Caretti, 2 vols. (Bari: Laterza, 1967).
!!@ATTRIBUTION_ABOUT:
!!@DATING:	mid-1560s through 1570s
!!@DEDICATEE:	Duke Alfonso II d'Este
!!@COMMENTARY:
!!@@END:		VERSEDATA
!!@@BEGIN: SETTING
!!@CATALOGNUM:	Tsg19107e
!!@CANTO:		XIX
!!@OTTAVA:	107
!!@TITLE:	Ma che? squallido e scuro anco mi piaci
!!@SETTINGTITLE: Ma che? squallido e scuro ancor mi piaci
!!@COMPOSER:	Negri, Francesco
!!@PARTS:		3-4 (verses 1-4; 5-8) of 4
!!@PRINCEPSTITLE:	Arie musicali da cantarsi nel clavecembalo chitarone o altro simile istromento a una e doi voci 
!!@PRINCEPSLOC:	Venice
!!@NORMLOC:	Venice
!!@NORMPUB:	Alessandro Vincenzi
!!@NORMPUBSHORT:	A. Vincenzi
!!@PRINCEPSPUB:	Alessandro Vincenti
!!@PRINCEPSYEAR:	1635
!!@PRINCEPSRISM:	N 360
!!@OVOICES:	1+bc
!!@EXTANTVOICES:	1+bc
!!@OMENSURATION:	C
!!@OCLEFS:	C4,F4
!!@OTIME:		
!!@OKEYSIG:	b-
!!@FINAL:		(G)G
!!@TIMPEDITOR:	Ricciardi, Emiliano
!!@REPRINTS:	
!!@@END: SETTING
